images/icons/vk.svg

<svg width="34" height="20" viewBox="0 0 34 20" fill="none" xmlns="http://www.w3.org/2000/svg">
<path d="M32.7578 17.5574C32.7578 17.4259 32.6263 17.4259 32.6263 17.2944C32.1003 16.2424 30.9168 14.9274 29.3388 13.4809C28.5498 12.8234 28.1553 12.2974 27.8923 12.0344C27.4978 11.5084 27.4978 11.1139 27.6293 10.5879C27.7608 10.1934 28.2868 9.53586 29.2073 8.35235C29.7333 7.69485 29.9963 7.30035 30.3908 6.90585C32.3633 4.27584 33.2838 2.56631 33.0208 1.77731L32.8893 1.64582C32.7578 1.51432 32.6263 1.38282 32.3633 1.38282C32.1003 1.25132 31.7058 1.25132 31.3113 1.38282H26.3143C26.1828 1.38282 26.1828 1.38282 25.9198 1.38282C25.7883 1.38282 25.6568 1.38282 25.6568 1.38282H25.5253H25.3938L25.2623 1.51431C25.1308 1.64581 25.1307 1.64581 25.1307 1.77731C24.6047 3.22382 23.9472 4.40732 23.2897 5.72233C22.8952 6.37984 22.5007 7.03735 22.1062 7.56336C21.7117 8.08936 21.4487 8.48385 21.1857 8.74686C20.9227 9.00986 20.6597 9.14136 20.5282 9.40436C20.3967 9.53586 20.1337 9.66737 20.1337 9.53587C20.0022 9.53587 19.8707 9.53586 19.8707 9.40436C19.7392 9.27286 19.6077 9.14135 19.4762 9.00985C19.3447 8.87835 19.3447 8.61535 19.2132 8.35235C19.2132 8.08935 19.2132 7.82635 19.2132 7.69485C19.2132 7.56334 19.2132 7.16885 19.2132 6.90585C19.2132 6.51135 19.2132 6.24834 19.2132 6.11684C19.2132 5.72234 19.2132 5.19635 19.2132 4.67034C19.2132 4.14434 19.2132 3.74982 19.2132 3.48682C19.2132 3.22382 19.2132 2.82932 19.2132 2.56632C19.2132 2.17182 19.2132 1.90881 19.2132 1.77731C19.2132 1.64581 19.0817 1.38281 19.0817 1.25131C18.9502 1.11981 18.8187 0.988307 18.6872 0.856806C18.5557 0.725305 18.2927 0.725309 18.1612 0.593808C17.5037 0.462307 16.7147 0.330811 15.7942 0.330811C13.6902 0.330811 12.2437 0.462315 11.7177 0.725317C11.4547 0.856818 11.1917 0.988311 11.0602 1.25131C10.7972 1.51431 10.7972 1.64582 10.9287 1.64582C11.5862 1.77732 12.1122 2.04031 12.3752 2.43481L12.5067 2.69783C12.6382 2.82933 12.6382 3.09232 12.7697 3.48682C12.9012 3.88133 12.9012 4.27583 12.9012 4.80183C12.9012 5.59084 12.9012 6.37985 12.9012 6.90585C12.9012 7.56336 12.7697 7.95785 12.7697 8.35235C12.7697 8.74685 12.6382 9.00986 12.5067 9.14136C12.3752 9.40436 12.3752 9.53587 12.2437 9.53587C12.2437 9.53587 12.2437 9.66736 12.1122 9.66736C11.9807 9.66736 11.8492 9.79887 11.5862 9.79887C11.4547 9.79887 11.1917 9.66737 11.0602 9.53587C10.7972 9.40437 10.5342 9.14137 10.4027 8.87837C10.1397 8.61536 9.87667 8.22085 9.61366 7.69485C9.35066 7.16884 8.95614 6.64285 8.69314 5.85384L8.43016 5.32785C8.29866 5.06484 8.03566 4.53883 7.77266 3.88133C7.50966 3.22382 7.24665 2.69783 6.98365 2.04033C6.85215 1.77732 6.72066 1.64581 6.58916 1.51431H6.45765C6.45765 1.51431 6.32613 1.38282 6.19463 1.38282C6.06313 1.38282 5.93165 1.25131 5.80015 1.25131H1.06611C0.540106 1.25131 0.277109 1.38281 0.145608 1.51431L0.0140991 1.64582C0.0140991 1.64582 0.0140991 1.77732 0.0140991 1.90882C0.0140991 2.04032 0.0141071 2.17181 0.145608 2.43481C0.803112 4.01282 1.59211 5.59084 2.38112 7.16885C3.17012 8.61536 3.95914 9.93037 4.48514 10.8509C5.14264 11.7714 5.66864 12.6919 6.32614 13.4809C6.98365 14.2699 7.37814 14.7959 7.50964 15.0589C7.77264 15.3219 7.90414 15.4534 8.03564 15.5849L8.43016 15.9794C8.69317 16.2424 9.08766 16.6369 9.61366 17.0314C10.1397 17.4259 10.7972 17.8204 11.4547 18.2149C12.1122 18.6094 12.9012 18.8724 13.6902 19.1354C14.6107 19.3984 15.3997 19.5299 16.1887 19.3984H18.1612C18.5557 19.3984 18.8187 19.2669 19.0817 19.0039L19.2132 18.8724C19.2132 18.7409 19.3447 18.7409 19.3447 18.6094C19.3447 18.4779 19.3447 18.3464 19.3447 18.0834C19.3447 17.5574 19.3447 17.1629 19.4762 16.7684C19.6077 16.3739 19.6077 16.1109 19.7392 15.8479C19.8707 15.5849 20.0022 15.4534 20.1337 15.3219C20.2652 15.1904 20.3967 15.0589 20.3967 15.0589H20.5282C20.7912 14.9274 21.1857 15.0589 21.4487 15.3219C21.8432 15.5849 22.2377 15.9794 22.5007 16.3739C22.7637 16.7684 23.1583 17.1629 23.6843 17.6889C24.2103 18.2149 24.6048 18.6094 24.8678 18.7409L25.2623 19.0039C25.5253 19.1354 25.7883 19.2669 26.1828 19.3984C26.5773 19.5299 26.8403 19.5299 27.1033 19.5299L31.5743 19.3984C31.9688 19.3984 32.3633 19.2669 32.6263 19.1354C32.8893 19.0039 33.0208 18.8724 33.0208 18.6094C33.0208 18.4779 33.0208 18.2149 33.0208 18.0834C32.7578 17.8204 32.7578 17.6889 32.7578 17.5574Z" fill="white"/>
</svg>

<svg width="34" height="20" fill="none" xmlns="http://www.w3.org/2000/svg"><path d="M32.758 17.557c0-.131-.132-.131-.132-.263-.526-1.052-1.71-2.367-3.287-3.813-.79-.658-1.184-1.184-1.447-1.447-.394-.526-.394-.92-.263-1.446.132-.395.658-1.052 1.578-2.236.526-.657.79-1.052 1.184-1.446 1.972-2.63 2.893-4.34 2.63-5.129l-.132-.131c-.131-.132-.263-.263-.526-.263-.263-.132-.657-.132-1.052 0h-5.917l-.132.131c-.131.132-.131.132-.131.263-.526 1.447-1.184 2.63-1.841 3.945-.395.658-.79 1.315-1.184 1.841-.394.526-.657.92-.92 1.184-.263.263-.526.394-.658.657-.131.132-.394.263-.394.132-.132 0-.263 0-.263-.132l-.395-.394c-.131-.132-.131-.395-.263-.658V1.777c0-.131-.131-.394-.131-.526l-.395-.394c-.131-.132-.394-.132-.526-.263C17.504.462 16.715.33 15.794.33c-2.104 0-3.55.131-4.076.394-.263.132-.526.263-.658.526-.263.263-.263.395-.131.395.657.131 1.183.394 1.446.789l.132.263c.131.131.131.394.263.789.131.394.131.789.131 1.315v2.104c0 .657-.131 1.052-.131 1.446 0 .395-.132.658-.263.79-.132.262-.132.394-.263.394 0 0 0 .131-.132.131-.131 0-.263.132-.526.132-.131 0-.394-.132-.526-.263a1.585 1.585 0 0 1-.657-.658c-.263-.263-.526-.657-.79-1.183-.262-.526-.657-1.052-.92-1.841l-.263-.526c-.131-.263-.394-.79-.657-1.447s-.526-1.183-.79-1.84a1.815 1.815 0 0 0-.394-.527h-.131s-.132-.131-.263-.131c-.132 0-.263-.132-.395-.132H1.066c-.526 0-.789.132-.92.263l-.132.132v.263c0 .131 0 .263.132.526C.803 4.013 1.592 5.59 2.38 7.169c.79 1.446 1.578 2.761 2.104 3.682.658.92 1.184 1.84 1.841 2.63.658.789 1.052 1.315 1.184 1.578l.526.526.394.394c.263.263.658.658 1.184 1.052.526.395 1.183.79 1.84 1.184.658.394 1.447.657 2.236.92.92.263 1.71.395 2.499.263h1.972c.395 0 .658-.131.92-.394l.132-.132c0-.131.132-.131.132-.263v-.526c0-.526 0-.92.131-1.315.132-.394.132-.657.263-.92.132-.263.263-.395.395-.526l.263-.263h.131c.263-.132.658 0 .92.263.395.263.79.657 1.053 1.052.263.394.657.789 1.183 1.315.526.526.92.92 1.184 1.052l.394.263c.263.131.526.263.92.394.395.132.658.132.921.132l4.471-.132c.395 0 .79-.131 1.052-.263.263-.131.395-.263.395-.526v-.526c-.263-.263-.263-.394-.263-.526Z" fill="#fff"/></svg>
